symbols/web/1k_plus/materialsymbolsrounded/1k_plus_wght100fill1_48px.svg

<svg xmlns="http://www.w3.org/2000/svg" height="48" width="48"><path d="M34.65 27.7q.3 0 .5-.2t.2-.5v-2.3h2.35q.3 0 .5-.2t.2-.5q0-.3-.2-.5t-.5-.2h-2.35v-2.35q0-.25-.2-.45t-.5-.2q-.3 0-.5.2t-.2.5v2.3H31.6q-.25 0-.475.2-.225.2-.225.5t.225.5q.225.2.475.2h2.35v2.35q0 .25.2.45t.5.2ZM23.3 29.2q.25 0 .425-.175t.175-.475V24.4l5 4.7q.05.1.175.1h.175q.5 0 .625-.4t-.175-.7l-4.5-4.2 4.55-4q.3-.3.2-.7-.1-.4-.6-.4-.15 0-.25.05l-.2.1-5 4.55v-4.15q0-.25-.175-.4-.175-.15-.475-.15-.25 0-.425.175t-.175.425v9.2q0 .25.175.425t.475.175Zm-7.15-9.15v8.55q0 .25.175.425t.475.175q.25 0 .425-.175t.175-.475V19.4q0-.25-.175-.425t-.475-.175h-3.1q-.25 0-.4.175-.15.175-.15.475 0 .25.175.425t.425.175ZM11.3 39.4q-1.15 0-1.925-.775Q8.6 37.85 8.6 36.7V11.3q0-1.15.775-1.925Q10.15 8.6 11.3 8.6h25.4q1.15 0 1.925.775.775.775.775 1.925v25.4q0 1.15-.775 1.925-.775.775-1.925.775Z"/></svg>

<svg xmlns="http://www.w3.org/2000/svg" height="48" width="48"><path d="M34.65 27.7Q34.95 27.7 35.15 27.5Q35.35 27.3 35.35 27V24.7H37.7Q38 24.7 38.2 24.5Q38.4 24.3 38.4 24Q38.4 23.7 38.2 23.5Q38 23.3 37.7 23.3H35.35V20.95Q35.35 20.7 35.15 20.5Q34.95 20.3 34.65 20.3Q34.35 20.3 34.15 20.5Q33.95 20.7 33.95 21V23.3H31.6Q31.35 23.3 31.125 23.5Q30.9 23.7 30.9 24Q30.9 24.3 31.125 24.5Q31.35 24.7 31.6 24.7H33.95V27.05Q33.95 27.3 34.15 27.5Q34.35 27.7 34.65 27.7ZM23.3 29.2Q23.55 29.2 23.725 29.025Q23.9 28.85 23.9 28.55V24.4L28.9 29.1Q28.95 29.2 29.075 29.2Q29.2 29.2 29.25 29.2Q29.75 29.2 29.875 28.8Q30 28.4 29.7 28.1L25.2 23.9L29.75 19.9Q30.05 19.6 29.95 19.2Q29.85 18.8 29.35 18.8Q29.2 18.8 29.1 18.85Q29 18.9 28.9 18.95L23.9 23.5V19.35Q23.9 19.1 23.725 18.95Q23.55 18.8 23.25 18.8Q23 18.8 22.825 18.975Q22.65 19.15 22.65 19.4V28.6Q22.65 28.85 22.825 29.025Q23 29.2 23.3 29.2ZM16.15 20.05V28.6Q16.15 28.85 16.325 29.025Q16.5 29.2 16.8 29.2Q17.05 29.2 17.225 29.025Q17.4 28.85 17.4 28.55V19.4Q17.4 19.15 17.225 18.975Q17.05 18.8 16.75 18.8H13.65Q13.4 18.8 13.25 18.975Q13.1 19.15 13.1 19.45Q13.1 19.7 13.275 19.875Q13.45 20.05 13.7 20.05ZM11.3 39.4Q10.15 39.4 9.375 38.625Q8.6 37.85 8.6 36.7V11.3Q8.6 10.15 9.375 9.375Q10.15 8.6 11.3 8.6H36.7Q37.85 8.6 38.625 9.375Q39.4 10.15 39.4 11.3V36.7Q39.4 37.85 38.625 38.625Q37.85 39.4 36.7 39.4Z"/></svg>
